X: 15441
T: Glen Of Aherlow, The
R: reel
M: 4/4
K: Edorian
|:B2AF BFAF|E3F EDBA|B2AF BFAF|DFAF FE E2|
B2AF BFAF|E3F EDBA|BE E2 DEFA|BdAF FE E2:|
|:eB B2 efge|fd d2 Adfd|eB B2 egfe|dBAF FE E2|
eB B2 efge|f3e defd|B3d egfe|dBAF BE E2:|

